X:1
T:5. Bourrée I
T:Suite per violoncello n° 3
T:Johann Sebastian BACH
T:B.  2013
Z:B.  2013
%%score ( 1 2 )
L:1/8
M:4/4
K:C
V:1 bass nm="Violoncello"
V:2 bass 
V:1
 vE,F, | G,2 (C,B,,) C,2 C2 | T[G,,D,B,]2 A,B, G,2 D,E, | F,2 (B,,A,,) B,,2 G,2 | %4
 (vF,E,D,E,) uC,2 CB, | (A,B,C)G, (^F,B,C)E, | (D,B,C)C, B,,D,^F,A, | D2 B,G, uD,2 u^F,2 | %8
 G,2 uD,2 uG,,2 B,C | D2 B,G, F,2 uB,2 | (E,G,C!4!D) !4!E2 !1!C!4!^G, | %11
 v!0!A,2 !1!F,!0!A, u!0!D,(vCB,A,) | uE,(vA,^G,^F,) uE,2 (uB,E,) | C(A,^G,A,) (B,E,)(CE,) | %14
 D(B,A,B,) (CE,)(DD,) | !2!C,!4!E!1!B,C E,2 (!2!A,^G,) | A,2 u!1!E,2 u!1!A,,2 vA,B, | %17
 C2 (^F,E,) F,2 D,2 | (G,,D,CA,) B,2 vG,=F, | (E,G,C)E, D,!2!FE!2!C | (DCB,A,) G,2 vB,C | %21
 (DB,G,)A, (B,G,D,)E, | (F,D,B,,)C, (D,B,,G,,)F, | (E,C,G,,)G, (E,C,G,,)C | %24
 (G,E,)(F,D,) (E,C,G,,)E, | (D,E,F,)C, (B,,E,F,)A,, | (G,,E,F,)F,, E,,G,,B,,D, | %27
 G,2 E,C, uG,,2 uB,,2 | [C,,C,]6 :| %29
V:2
 x2 | x8 | x8 | x8 | [C,,G,,]2 x6 | x8 | x8 | x8 | x8 | x8 | x8 | x8 | x8 | x8 | x8 | x8 | x8 | %17
 x8 | x8 | x8 | x8 | x8 | x8 | x8 | x8 | x8 | x8 | x8 | x6 :| %29

